!!!COM: Hugo Wolf
!!!CNT: Deutscher
!!!TXO: Deutsche 
!!!OPR: Alte Weisen: sechs Gedichte von Keller
!!!OTL: Das Ko2hlerweib ist trunken
!!!ONM: No. 5
!!!ODT: 1890/
!!!LYR: Keller
!!!ENC: Brian Bice
!!!YOR: 65 Songs for voice and piano, International Music Company, 1960
!!NB: Vocal melody and text only encoded.
**kern	**silbe
*clefG2	*
*k[b-]	*
*M3/8	*
=4	=4
4r	.
{8a	{Das
=5	=5
4dd	Ko2h-
8dd	-ler-
=6	=6
4dd	-weib
8dd	ist
=7	=7
(4dd	trun-
8ee	|
=8	=8
8ff)	|
8ee	-ken
8dd	und
=9	=9
4cc#	singt
8ee	in
=10	=10
[4.aa	Wald,
=11	=11
4.aa]}	|}
=13	=13
{4.ff	{ho2rt,
=14	=14
4ff	wie
8ff	die
=15	=15
4ff	Stim-
8ee	-me
=16	=16
8dd	gel-
8ee	-lend
8ff	im
=17	=17
4ee	Gru2-
8gg	-nen
=18	=18
[4.cc	hallt!
=19	=19
4.cc]}	|}
=20	=20
4r	.
{8cc	{Sie
=21	=21
4cc	war
8cc	die
=22	=22
4cc	scho2n-
8cc	-ste
=23	=23
(4cc	Blu-
[8ff	|
=24	=24
8ff])	|
8cc	-me,
8bn	be-
=25	=25
4b-	-ru2hmt
8dd	im
=26	=26
[4.gg	Land;
=27	=27
4.gg]}	|}
=28	=28
4r	.
{8c	{es
=29	=29
4f	war-
8f	-ben
=30	=30
4a	Reich'
8bn	und
=31	=31
(4cc	Ar-
[8ff	|
=32	=32
8ff])	|
8ee	-me
8dd	um
=33	=33
(8cc	ih-
8bn)	|
8a	-re
=34	=34
[4.f	Hand.
=35	=35
4.f_	|
=36	=36
8f]}	|}
8r	.
8r	.
=37	=37
4r	.
{8b-	{Sie
=38	=38
4b-	trat
8b-	in
=39	=39
4b-	Gu2r-
8b-	-tel-
=40	=40
8b-	-ket-
8cc	-ten
8dd	so
=41	=41
4ee-	stolz
8gg	ein-
=42	=42
[4.cc	-her;
=43	=43
4.cc]}	|}
=44	=44
4r	.
{8f	{den
=45	=45
4b-	Bra2u-
8b-	-ti-
=46	=46
4b-	-gam
8b-	zu
=47	=47
(4b-	wa2h-
8dd)	|
=48	=48
4dd	-len
[8cc	fiel
=49	=49
8cc]	|
8cc	ihr
8b-	zu
=50	=50
[4.f#	schwer.
=51	=51
4f#]}	|}
8r	.
=52	=52
4r	.
{[8d	{Da
=53	=53
8d]	|
8d	hat
8d	sie
=54	=54
4d	u2-
8d	-ber-
=55	=55
(4d	-li-
8dd)	|
=56	=56
4dd	-stet
8cc	der
=57	=57
4bn	ro-
8dd	-te
=58	=58
[4.f	Wein,
=59	=59
4.f_	|
=60	=60
8f]}	|}
8r	.
8r	.
=61	=61
{8b-	{wie
8b-	mu2s-
8b-	-sen
=62	=62
4b-	al-
8b-	-le
=63	=63
4.b-	Din-
=64	=64
4b-	-ge
8b-	ver-
=65	=65
4.b-	-ga2ng-
=66	=66
4.dd-	-lich
=67	=67
[4.cc#	sein!
=68	=68
4.cc#_	|
=69	=69
4.cc#]}	|}
=72	=72
4r	.
{8a	{Das
=73	=73
4dd	Ko2h-
8dd	-ler-
=74	=74
4dd	-weib
8dd	ist
=75	=75
(4dd	trun-
8ee	|
=76	=76
8ff)	|
8ee	-ken
8dd	und
=77	=77
4cc#	singt
8ee	im
=78	=78
[4.a	Wald;
=79	=79
4.a]}	|}
=81	=81
{8ff	{wie
8ff	durch
8ff	die
=82	=82
8.ff	Da2m-
16ff	-mer-
8ff	-ung
=83	=83
8ff	gel-
8ee	-lend
8dd	ihr
=84	=84
[4.ff	Lied
=85	=85
4.ff_	|
=86	=86
4ff]	|
(24ee	er-
24ff	|
24ee)	|
=87	=87
[4.dd	-schallt!
=88	=88
4.dd_	|
=89	=89
4.dd_	|
=90	=90
8dd]}	|}
8r	.
8r	.
*-	*-
